picto/do-not-throw-items-out-of-the-window.svg

<svg class="color-immutable" width="24" height="24" viewBox="0 0 24 24" fill="none" xmlns="http://www.w3.org/2000/svg"><path d="M0 22.5V1.5C0 0.675 0.675 0 1.5 0H22.5C23.325 0 24 0.675 24 1.5V22.5C24 23.325 23.325 24 22.5 24H1.5C0.675 24 0 23.325 0 22.5Z" fill="#2D327D"/><path d="M3.06396 16.432L5.19196 14.334C5.31696 14.211 5.51797 14.212 5.64197 14.337L5.87197 14.571L4.32496 16.099L4.55797 16.335L6.54497 14.373C6.66997 14.25 6.87097 14.251 6.99396 14.376L7.22497 14.609L5.01296 16.794L5.24496 17.03L7.88797 14.421C8.01297 14.298 8.21396 14.299 8.33797 14.424L8.56796 14.657L5.69896 17.49L5.93197 17.726L9.24296 14.456C9.43096 14.27 9.73496 14.272 9.92096 14.46C10.107 14.648 10.105 14.952 9.91696 15.138L6.36396 18.649C6.05796 18.951 6.05496 19.444 6.35696 19.749C6.50396 19.898 6.69596 19.975 6.88896 19.98L8.62896 19.982L8.81996 19.991C8.95096 20 9.07996 20.055 9.17896 20.156C9.29496 20.274 9.34797 20.43 9.33797 20.584L9.33696 20.673C9.33996 20.762 9.30796 20.853 9.23897 20.921C9.17097 20.988 9.08096 21.02 8.99296 21.016H3.06497" fill="white"/><path d="M21.168 20.057L16.777 15.666H20.313C20.727 15.666 21.064 15.322 21.064 14.899V3.799C21.064 3.376 20.727 3.031 20.313 3.031H4.14199L3.82699 2.716L2.76599 3.776L3.06599 4.076V14.898C3.06599 15.237 3.28399 15.523 3.58399 15.624L4.18599 15.031H3.81699C3.75199 15.031 3.69999 14.972 3.69999 14.899V11.072H8.21899L8.59399 10.697H3.69999V4.71L9.26099 10.271L8.30799 11.226C8.12099 11.414 8.12299 11.719 8.31199 11.908L9.85699 13.45C10.047 13.639 10.352 13.641 10.539 13.453L11.49 12.5L14.02 15.03H10.226C10.192 15.125 10.137 15.213 10.063 15.286L9.67899 15.665H14.655L20.107 21.117L21.168 20.057ZM12.551 11.44L13.232 10.758C14.022 9.967 13.888 8.747 14.342 8.293L14.34 8.292C14.794 7.837 15.686 6.737 15.686 6.737L15.694 6.744C15.742 6.785 15.813 6.782 15.857 6.738L16.033 6.562C16.08 6.515 16.08 6.439 16.032 6.392L15.35 5.709C15.303 5.662 15.227 5.662 15.18 5.709L15.005 5.884C14.961 5.929 14.958 6.001 15 6.048L15.005 6.054C15.005 6.054 13.918 6.962 13.464 7.416C13.01 7.871 11.79 7.739 11 8.53L10.321 9.21L4.77699 3.666H20.313C20.378 3.666 20.43 3.726 20.43 3.799V10.698H13.539L13.164 11.073H20.43V14.9C20.43 14.973 20.377 15.032 20.313 15.032H16.142L12.551 11.44Z" fill="white"/><path d="M3.82699 2.716L2.76599 3.776L20.108 21.118L21.168 20.057L3.82699 2.716Z" fill="#EB0000"/></svg>

<svg class="color-immutable" width="24" height="24" viewBox="0 0 24 24" fill="none" xmlns="http://www.w3.org/2000/svg"><g clip-path="url(#a)"><path d="M0 22.5v-21C0 .675.675 0 1.5 0h21c.825 0 1.5.675 1.5 1.5v21c0 .825-.675 1.5-1.5 1.5h-21C.675 24 0 23.325 0 22.5Z" fill="#2D327D"/><path d="m3.064 16.432 2.128-2.098a.319.319 0 0 1 .45.003l.23.234-1.547 1.528.233.236 1.987-1.962a.317.317 0 0 1 .449.003l.231.233-2.212 2.185.232.236 2.643-2.609a.319.319 0 0 1 .45.003l.23.233-2.869 2.833.233.236 3.311-3.27a.48.48 0 0 1 .674.682l-3.553 3.511a.777.777 0 0 0 .525 1.331l1.74.002.191.009a.555.555 0 0 1 .518.593l-.001.089a.331.331 0 0 1-.344.343H3.065" fill="#fff"/><path d="m21.168 20.057-4.391-4.391h3.536a.76.76 0 0 0 .751-.767v-11.1a.76.76 0 0 0-.751-.768H4.142l-.315-.315-1.061 1.06.3.3v10.822c0 .339.218.625.518.726l.602-.593h-.369c-.065 0-.117-.059-.117-.132v-3.827h4.519l.375-.375H3.7V4.71l5.561 5.561-.953.955a.483.483 0 0 0 .004.682l1.545 1.542c.19.189.495.191.682.003l.951-.953 2.53 2.53h-3.794a.682.682 0 0 1-.163.256l-.384.379h4.976l5.452 5.452 1.061-1.06Zm-8.617-8.617.681-.682c.79-.791.656-2.011 1.11-2.465l-.002-.001c.454-.455 1.346-1.555 1.346-1.555l.008.007a.12.12 0 0 0 .163-.006l.176-.176a.12.12 0 0 0-.001-.17l-.682-.683a.12.12 0 0 0-.17 0l-.175.175a.12.12 0 0 0-.005.164l.005.006s-1.087.908-1.541 1.362c-.454.455-1.674.323-2.464 1.114l-.679.68-5.544-5.544h15.536c.065 0 .117.06.117.133v6.899h-6.891l-.375.375h7.266V14.9c0 .073-.053.132-.117.132h-4.171l-3.591-3.592Z" fill="#fff"/><path d="m3.827 2.716-1.061 1.06 17.342 17.342 1.06-1.061L3.827 2.716Z" fill="#EB0000"/></g><defs><clipPath id="a"><path fill="#fff" d="M0 0h24v24H0z"/></clipPath></defs></svg>
